src/assets/subject_icons/science.svg

<svg fill="none" height="80" viewBox="0 0 80 80" width="80" xmlns="http://www.w3.org/2000/svg"><path d="m40 80c22.0914 0 40-17.9086 40-40s-17.9086-40-40-40-40 17.9086-40 40 17.9086 40 40 40z" fill="#9575cd"/><path d="m51.6381 59.2h-23.9434c-1.6382 0-2.8442-.5653-3.3938-1.6-.5497-1.0347-.3469-2.5227.6189-3.9947l10.7098-15.952v-14.256c0-.1414.0562-.2771.1562-.3771.1001-.1.2358-.1562.3774-.1562h7.5187c.1415 0 .2772.0562.3773.1562s.1563.2357.1563.3771v14.2614l10.8804 16.352c.9499 1.504 1.1687 2.7253.6671 3.6426-.5763 1.0134-1.9638 1.5467-4.1249 1.5467z" fill="#e3f2fd"/><path d="m51.8196 57.6h-23.5592c-1.1099 0-1.8517-.2987-2.2092-.88-.1523-.2975-.2245-.6295-.2095-.9633.0149-.3338.1166-.658.2949-.9407.0068-.0171.0158-.0332.0267-.048l8.6553-13.0133c.0686-.099.1687-.1718.284-.2066.1153-.0349.239-.0298.351.0146 1.3784.5484 2.8443.8446 4.3276.8746 1.4642-.0268 2.911-.3214 4.2689-.8693.1115-.0449.2348-.0508.35-.017.1153.0339.2157.1057.2851.2037l8.4952 12.8c.5816.9653.7043 1.728.3842 2.2986-.2242.3307-.6724.7467-1.745.7467z" fill="#16d2aa"/><path d="m44.2956 24.5333h-8.6126c-.4532-.0594-.8694-.2816-1.1708-.625-.3015-.3435-.4678-.7848-.4678-1.2416 0-.4569.1663-.8982.4678-1.2417.3014-.3434.7176-.5656 1.1708-.625h8.6126c.4533.0594.8694.2816 1.1709.625.3015.3435.4678.7848.4678 1.2417 0 .4568-.1663.8981-.4678 1.2416-.3015.3434-.7176.5656-1.1709.625z" fill="#b5e2fa"/><g fill="#fff"><path d="m44.9679 52.1173c0 .3165-.0938.6258-.2698.8889-.1759.2632-.4259.4682-.7184.5893s-.6144.1528-.9249.0911c-.3106-.0617-.5958-.2141-.8197-.4379s-.3763-.5089-.4381-.8192c-.0618-.3104-.0301-.6321.0911-.9245.1212-.2923.3263-.5422.5896-.718s.5728-.2697.8894-.2697c.4246 0 .8317.1686 1.132.4687.3002.3.4688.707.4688 1.1313z"/><path d="m40.7364 47.3653c0 .422-.1252.8344-.3598 1.1852-.2345.3509-.5679.6243-.9579.7858-.39.1614-.8192.2037-1.2332.1214-.4141-.0823-.7944-.2855-1.0929-.5839-.2985-.2983-.5018-.6785-.5842-1.0923-.0823-.4138-.0401-.8427.1215-1.2326.1615-.3898.4351-.723.7861-.9574s.7637-.3595 1.1859-.3595c.5661 0 1.109.2248 1.5093.6248.4003.4001.6252.9427.6252 1.5085z"/><path d="m36.0192 53.5253c0 .211-.0626.4172-.1798.5927-.1173.1754-.284.3121-.479.3928s-.4096.1019-.6166.0607c-.207-.0411-.3972-.1427-.5464-.2919-.1493-.1492-.2509-.3392-.2921-.5462-.0412-.2069-.0201-.4213.0607-.6162.0808-.195.2176-.3615.3931-.4788.1755-.1172.3818-.1797.5929-.1797.2831 0 .5545.1124.7547.3124.2001.2.3125.4713.3125.7542z"/></g></svg>

<svg width="80" height="80" viewBox="0 0 80 80" fill="none" xmlns="http://www.w3.org/2000/svg">
<path d="M40 80C62.0914 80 80 62.0914 80 40C80 17.9086 62.0914 0 40 0C17.9086 0 0 17.9086 0 40C0 62.0914 17.9086 80 40 80Z" fill="#9575CD"/>
<path d="M51.6381 59.2H27.6947C26.0565 59.2 24.8505 58.6347 24.3009 57.6C23.7512 56.5653 23.954 55.0773 24.9198 53.6053L35.6296 37.6533V23.3973C35.6296 23.2559 35.6858 23.1202 35.7858 23.0202C35.8859 22.9202 36.0216 22.864 36.1632 22.864H43.6819C43.8234 22.864 43.9591 22.9202 44.0592 23.0202C44.1593 23.1202 44.2155 23.2559 44.2155 23.3973V37.6587L55.0959 54.0107C56.0458 55.5147 56.2646 56.736 55.763 57.6533C55.1867 58.6667 53.7992 59.2 51.6381 59.2Z" fill="#E3F2FD"/>
<path d="M51.8196 57.6H28.2604C27.1505 57.6 26.4087 57.3013 26.0512 56.72C25.8989 56.4225 25.8267 56.0905 25.8417 55.7567C25.8566 55.4229 25.9583 55.0987 26.1366 54.816C26.1434 54.7989 26.1524 54.7828 26.1633 54.768L34.8186 41.7547C34.8872 41.6557 34.9873 41.5829 35.1026 41.5481C35.2179 41.5132 35.3416 41.5183 35.4536 41.5627C36.832 42.1111 38.2979 42.4073 39.7812 42.4373C41.2454 42.4105 42.6922 42.1159 44.0501 41.568C44.1616 41.5231 44.2849 41.5172 44.4001 41.551C44.5154 41.5849 44.6158 41.6567 44.6852 41.7547L53.1804 54.5547C53.762 55.52 53.8847 56.2827 53.5646 56.8533C53.3404 57.184 52.8922 57.6 51.8196 57.6Z" fill="#16D2AA"/>
<path d="M44.2956 24.5333H35.683C35.2298 24.4739 34.8136 24.2517 34.5122 23.9083C34.2107 23.5648 34.0444 23.1235 34.0444 22.6667C34.0444 22.2098 34.2107 21.7685 34.5122 21.425C34.8136 21.0816 35.2298 20.8594 35.683 20.8H44.2956C44.7489 20.8594 45.165 21.0816 45.4665 21.425C45.768 21.7685 45.9343 22.2098 45.9343 22.6667C45.9343 23.1235 45.768 23.5648 45.4665 23.9083C45.165 24.2517 44.7489 24.4739 44.2956 24.5333Z" fill="#B5E2FA"/>
<path d="M44.9679 52.1173C44.9679 52.4338 44.8741 52.7431 44.6981 53.0062C44.5222 53.2694 44.2722 53.4744 43.9797 53.5955C43.6872 53.7166 43.3653 53.7483 43.0548 53.6866C42.7442 53.6249 42.459 53.4725 42.2351 53.2487C42.0112 53.0249 41.8588 52.7398 41.797 52.4295C41.7352 52.1191 41.7669 51.7974 41.8881 51.505C42.0093 51.2127 42.2144 50.9628 42.4777 50.787C42.741 50.6112 43.0505 50.5173 43.3671 50.5173C43.7917 50.5173 44.1988 50.6859 44.4991 50.986C44.7993 51.286 44.9679 51.693 44.9679 52.1173Z" fill="white"/>
<path d="M40.7364 47.3653C40.7364 47.7873 40.6112 48.1997 40.3766 48.5505C40.1421 48.9014 39.8087 49.1748 39.4187 49.3363C39.0287 49.4977 38.5995 49.54 38.1855 49.4577C37.7714 49.3754 37.3911 49.1722 37.0926 48.8738C36.7941 48.5755 36.5908 48.1953 36.5084 47.7815C36.4261 47.3677 36.4683 46.9388 36.6299 46.5489C36.7914 46.1591 37.065 45.8259 37.416 45.5915C37.767 45.3571 38.1797 45.232 38.6019 45.232C39.168 45.232 39.7109 45.4568 40.1112 45.8568C40.5115 46.2569 40.7364 46.7995 40.7364 47.3653Z" fill="white"/>
<path d="M36.0192 53.5253C36.0192 53.7363 35.9566 53.9425 35.8394 54.118C35.7221 54.2934 35.5554 54.4301 35.3604 54.5108C35.1654 54.5915 34.9508 54.6127 34.7438 54.5715C34.5368 54.5304 34.3466 54.4288 34.1974 54.2796C34.0481 54.1304 33.9465 53.9404 33.9053 53.7334C33.8641 53.5265 33.8852 53.3121 33.966 53.1172C34.0468 52.9222 34.1836 52.7557 34.3591 52.6384C34.5346 52.5212 34.7409 52.4587 34.952 52.4587C35.2351 52.4587 35.5065 52.5711 35.7067 52.7711C35.9068 52.9711 36.0192 53.2424 36.0192 53.5253Z" fill="white"/>
</svg>
